X:0163
T:Pompey ran away.
C:Negroe Jig.
M:3/4
L:1/8
1/4=120
I: :: ||
Z:Jack Campin * www.campin.me.uk * 2009
K:G
B2BA G2|EGFD G2|B2BA G2|EGFD G2:|
dBcA G2|EAAF G2|dBcA G2|EGFD G2 |
EAAF G2|EGFD G2|EAAF G2|EGFD G2|]

